file/starbucks.svg

<svg clip-rule="evenodd" fill-rule="evenodd" stroke-linejoin="round" stroke-miterlimit="1.41421" viewBox="0 0 560 400" xmlns="http://www.w3.org/2000/svg"><g transform="matrix(4.66636 0 0 4.66636 135.343 55.0793)"><circle cx="31" cy="31" fill="#fff" r="30.002"/><g fill="#006341" fill-rule="nonzero"><path d="m34.017 13.969c-.263-.047-1.531-.26-3.017-.26s-2.754.212-3.017.26c-.151.027-.209-.121-.094-.207.104-.077 3.11-2.365 3.11-2.365s3.007 2.289 3.109 2.365c.117.086.06.234-.091.207zm-5.194 14.856s-.159.057-.201.197c.63.484 1.064 1.585 2.378 1.585s1.748-1.101 2.377-1.585c-.041-.141-.2-.197-.2-.197s-.823.194-2.177.194-2.177-.194-2.177-.194zm2.177-1.853c-.365 0-.445-.138-.694-.137-.237.001-.697.19-.797.363.007.088.039.167.103.237.532.08.772.376 1.389.376s.856-.296 1.389-.376c.062-.07.096-.148.103-.237-.099-.173-.56-.361-.798-.363-.25-.002-.331.137-.695.137zm29.956 5.673c-.038.717-.102 1.428-.19 2.131-3.396.562-4.61-2.464-8.089-2.312.208.738.377 1.49.507 2.258 2.869-.002 4.025 2.68 7.217 2.285-.168.82-.37 1.629-.603 2.426-2.524.248-3.413-2.26-6.334-2.191.024.416.037.836.037 1.26 0 .234-.005.469-.012.701 2.49-.029 3.3 2.273 5.672 2.164-.297.807-.629 1.596-.991 2.369-1.705-.094-2.293-2.281-4.887-2.107-.078.561-.177 1.115-.295 1.662 2.253-.158 2.738 1.916 4.352 2.084-.411.75-.854 1.48-1.325 2.191-.956-.512-1.785-2.057-3.598-2.152.186-.574.349-1.156.487-1.748-1.608 0-3.447-.627-4.989-2.031.5-2.846-3.917-5.744-3.917-7.828 0-2.264 1.145-3.517 1.145-6.569 0-2.265-1.1-4.722-2.759-6.401-.321-.326-.65-.59-1.028-.827 1.524 1.886 2.694 4.122 2.694 6.712 0 2.874-1.337 4.391-1.337 7.044 0 2.652 3.88 4.947 3.88 7.682 0 1.076-.344 2.127-1.478 4.191 1.742 1.74 4.011 2.689 5.475 2.689.475 0 .73-.145.9-.518.146-.322.285-.648.416-.977 1.577.061 2.299 1.494 3.172 2.066-.479.643-.982 1.264-1.509 1.865-.585-.648-1.371-1.738-2.522-2.041-.206.4-.424.795-.653 1.182.991.27 1.669 1.27 2.194 1.928-.566.586-1.155 1.148-1.768 1.688-.383-.596-.979-1.352-1.647-1.76-.247.334-.504.66-.769.977.568.385 1.069 1.078 1.396 1.643-.708.568-1.44 1.107-2.198 1.611-.374-3.047-4.533-5.135-3.412-8.67-.368.623-.807 1.402-.807 2.34 0 2.559 2.726 4.59 2.943 7.133-.565.338-1.143.656-1.732.957-.098-2.795-2.984-5.854-2.984-8.148 0-2.561 3.354-5.133 3.354-8.156 0-3.025-3.87-5.119-3.87-7.775 0-2.654 1.646-4.181 1.646-7.583 0-2.492-1.184-5.014-3.013-6.625-.324-.286-.643-.513-1.026-.712 1.725 2.069 2.725 3.946 2.725 6.794 0 3.199-1.886 4.975-1.886 8.107 0 3.133 3.798 4.875 3.798 7.795s-3.535 5.381-3.535 8.381c0 2.729 3.116 5.453 3.162 8.691-.681.297-1.375.568-2.081.814.396-3.271-3.111-6.645-3.111-9.314 0-2.918 3.667-5.426 3.667-8.572 0-3.148-3.728-4.611-3.728-7.842 0-3.229 2.287-5.017 2.287-8.585 0-2.781-1.373-5.282-3.379-6.832-.043-.033-.085-.064-.127-.096-.189-.14-.345.029-.211.195 1.42 1.773 2.179 3.566 2.179 6.221 0 3.264-2.627 5.916-2.627 9.078 0 3.732 3.528 4.799 3.528 7.861 0 3.061-3.783 5.51-3.783 8.76 0 3.014 3.58 6.359 2.966 9.838-.718.186-1.446.348-2.185.48.672-4.332-2.84-7.443-2.84-10.277 0-3.068 3.918-5.803 3.918-8.801 0-2.828-2.812-3.752-3.182-6.645-.051-.395-.368-.688-.805-.615-.571.104-1.303.48-2.453.48s-1.882-.377-2.454-.48c-.436-.072-.753.221-.804.615-.369 2.893-3.183 3.816-3.183 6.645 0 2.998 3.919 5.732 3.919 8.801 0 2.834-3.512 5.945-2.841 10.277-.738-.133-1.467-.295-2.185-.48-.614-3.479 2.967-6.824 2.967-9.838 0-3.25-3.784-5.699-3.784-8.76 0-3.062 3.529-4.129 3.529-7.861 0-3.162-2.628-5.813-2.628-9.078 0-2.654.759-4.447 2.18-6.221.133-.166-.022-.335-.212-.195-.042.031-.084.063-.126.096-2.004 1.546-3.376 4.047-3.376 6.828 0 3.568 2.287 5.356 2.287 8.585 0 3.23-3.728 4.693-3.728 7.842 0 3.146 3.667 5.654 3.667 8.572 0 2.67-3.507 6.043-3.11 9.314-.707-.246-1.401-.518-2.082-.814.047-3.238 3.161-5.963 3.161-8.691 0-3-3.533-5.461-3.533-8.381s3.796-4.662 3.796-7.795c0-3.132-1.885-4.908-1.885-8.107 0-2.848.999-4.725 2.724-6.794-.384.199-.702.426-1.025.712-1.829 1.611-3.012 4.133-3.012 6.625 0 3.402 1.646 4.929 1.646 7.583 0 2.656-3.87 4.75-3.87 7.775 0 3.023 3.354 5.596 3.354 8.156 0 2.295-2.888 5.354-2.985 8.148-.589-.301-1.167-.619-1.732-.957.218-2.543 2.943-4.574 2.943-7.133 0-.938-.438-1.717-.807-2.34 1.121 3.535-3.038 5.623-3.412 8.67-.758-.504-1.491-1.043-2.198-1.611.326-.564.827-1.258 1.396-1.643-.266-.316-.522-.643-.769-.977-.669.408-1.266 1.164-1.648 1.76-.611-.539-1.201-1.102-1.767-1.688.525-.658 1.203-1.658 2.194-1.928-.229-.387-.447-.781-.653-1.182-1.151.303-1.938 1.393-2.522 2.041-.527-.602-1.031-1.223-1.509-1.865.873-.572 1.595-2.006 3.171-2.066.132.328.271.654.417.977.17.373.426.518.9.518 1.464 0 3.732-.949 5.475-2.689-1.134-2.064-1.478-3.115-1.478-4.191 0-2.734 3.88-5.029 3.88-7.682s-1.337-4.17-1.337-7.044c0-2.59 1.17-4.826 2.694-6.712-.378.237-.707.501-1.028.827-1.659 1.68-2.759 4.136-2.759 6.401 0 3.052 1.146 4.305 1.146 6.569 0 2.084-4.418 4.982-3.918 7.828-1.542 1.404-3.381 2.031-4.99 2.031.14.592.303 1.174.487 1.748-1.812.096-2.641 1.641-3.598 2.152-.472-.711-.914-1.441-1.325-2.191 1.613-.168 2.099-2.242 4.353-2.084-.118-.547-.218-1.102-.296-1.662-2.594-.174-3.182 2.014-4.887 2.107-.362-.773-.694-1.562-.991-2.369 2.373.109 3.182-2.193 5.673-2.164-.007-.232-.012-.467-.012-.701 0-.424.013-.844.036-1.26-2.921-.068-3.81 2.439-6.334 2.191-.232-.797-.435-1.605-.602-2.426 3.19.395 4.347-2.287 7.217-2.285.13-.768.299-1.52.506-2.258-3.479-.151-4.693 2.875-8.088 2.312-.089-.703-.152-1.414-.19-2.131 3.947.441 5.427-2.804 9.021-2.407.339-.859.733-1.69 1.177-2.49-4.506-.792-6.036 2.976-10.23 2.397.453-16.171 13.706-29.143 29.989-29.143s29.536 12.972 29.989 29.147c-4.195.579-5.725-3.188-10.23-2.397.443.8.837 1.631 1.177 2.49 3.592-.398 5.072 2.848 9.02 2.407zm-42.852-12.583c-2.209-.903-4.883-.695-7.167.772-.354-2.125-1.507-4.013-3.149-5.152-.227-.157-.463-.008-.442.255.347 4.49-2.278 8.389-5.506 11.816 3.327 1 6.159-3.284 10.474-1.789 1.548-2.305 3.514-4.308 5.79-5.902zm12.896-2.716c-2.785 0-5.118 1.575-5.729 3.61-.047.156.017.257.197.176.501-.225 1.071-.333 1.69-.333 1.136 0 2.137.417 2.729 1.143.262.864.284 2.115-.012 2.829-.468-.105-.636-.467-1.093-.467s-.811.321-1.586.321c-.774 0-.865-.366-1.374-.366-.599 0-.709.617-.709 1.313 0 3.103 2.852 7.373 5.886 7.373 3.033 0 5.885-4.27 5.885-7.373 0-.696-.143-1.292-.769-1.373-.312.225-.599.426-1.313.426-.775 0-.989-.321-1.445-.321-.551 0-.496 1.162-1.15 1.227-.436-1.048-.457-2.392-.095-3.589.593-.726 1.593-1.143 2.729-1.143.619 0 1.193.109 1.689.333.181.081.244-.021.197-.176-.61-2.035-2.942-3.61-5.727-3.61zm4.434 4.452c-.668 0-1.451.205-1.943.753-.051.149-.051.371.021.519 1.211-.415 2.279-.431 2.795.146.275-.25.363-.475.363-.736 0-.403-.41-.682-1.236-.682zm-9.741 1.418c.584-.585 1.815-.56 3.094-.088.056-.636-1.083-1.331-2.221-1.331-.827 0-1.236.279-1.236.683 0 .261.088.487.363.736zm19.194-10.504c-2.199.157-4.109.912-5.654 2.17.656-1.86 1.489-3.487 2.545-5.064-2.8.297-5.141 1.321-6.849 3.071l-1.337-3.505 2.968-2.621-3.974-.281-1.586-3.696-1.587 3.696-3.974.281 2.968 2.621-1.336 3.505c-1.709-1.75-4.05-2.774-6.848-3.071 1.054 1.578 1.887 3.205 2.543 5.064-1.544-1.259-3.454-2.014-5.653-2.17 1.319 1.696 2.488 3.504 3.354 5.448.098.219.308.291.535.178 3.012-1.497 6.406-2.339 9.997-2.339s6.984.843 9.998 2.339c.227.113.437.041.534-.178.867-1.944 2.036-3.752 3.356-5.448zm4.801 13.254c4.313-1.495 7.146 2.788 10.473 1.789-3.228-3.427-5.852-7.326-5.505-11.816.021-.263-.216-.413-.442-.255-1.643 1.139-2.796 3.027-3.149 5.152-2.285-1.467-4.958-1.676-7.167-.772 2.273 1.592 4.24 3.595 5.79 5.902z"/><path d="m53.595 57.01h-1.526v4.105h-.547v-4.105h-1.522v-.51h3.595z"/><path d="m54.236 56.5h.811l1.57 3.618h.011l1.574-3.618h.798v4.615h-.551v-3.869h-.012l-1.653 3.869h-.333l-1.659-3.869h-.011v3.869h-.545z"/></g></g></svg>

<?xml version="1.0" encoding="UTF-8" standalone="no"?>
<!DOCTYPE svg PUBLIC "-//W3C//DTD SVG 1.1//EN" "http://www.w3.org/Graphics/SVG/1.1/DTD/svg11.dtd">
<svg width="100%" height="100%" viewBox="0 0 560 400" version="1.1" xmlns="http://www.w3.org/2000/svg" xmlns:xlink="http://www.w3.org/1999/xlink" xml:space="preserve" xmlns:serif="http://www.serif.com/" style="fill-rule:evenodd;clip-rule:evenodd;stroke-linejoin:round;stroke-miterlimit:1.41421;">
    <g transform="matrix(4.66636,0,0,4.66636,135.343,55.0793)">
        <g>
            <circle cx="31" cy="31" r="30.002" style="fill:white;"/>
            <path d="M34.017,13.969C33.754,13.922 32.486,13.709 31,13.709C29.514,13.709 28.246,13.921 27.983,13.969C27.832,13.996 27.774,13.848 27.889,13.762C27.993,13.685 30.999,11.397 30.999,11.397C30.999,11.397 34.006,13.686 34.108,13.762C34.225,13.848 34.168,13.996 34.017,13.969ZM28.823,28.825C28.823,28.825 28.664,28.882 28.622,29.022C29.252,29.506 29.686,30.607 31,30.607C32.314,30.607 32.748,29.506 33.377,29.022C33.336,28.881 33.177,28.825 33.177,28.825C33.177,28.825 32.354,29.019 31,29.019C29.646,29.019 28.823,28.825 28.823,28.825ZM31,26.972C30.635,26.972 30.555,26.834 30.306,26.835C30.069,26.836 29.609,27.025 29.509,27.198C29.516,27.286 29.548,27.365 29.612,27.435C30.144,27.515 30.384,27.811 31.001,27.811C31.618,27.811 31.857,27.515 32.39,27.435C32.452,27.365 32.486,27.287 32.493,27.198C32.394,27.025 31.933,26.837 31.695,26.835C31.445,26.833 31.364,26.972 31,26.972ZM60.956,32.645C60.918,33.362 60.854,34.073 60.766,34.776C57.37,35.338 56.156,32.312 52.677,32.464C52.885,33.202 53.054,33.954 53.184,34.722C56.053,34.72 57.209,37.402 60.401,37.007C60.233,37.827 60.031,38.636 59.798,39.433C57.274,39.681 56.385,37.173 53.464,37.242C53.488,37.658 53.501,38.078 53.501,38.502C53.501,38.736 53.496,38.971 53.489,39.203C55.979,39.174 56.789,41.476 59.161,41.367C58.864,42.174 58.532,42.963 58.17,43.736C56.465,43.642 55.877,41.455 53.283,41.629C53.205,42.19 53.106,42.744 52.988,43.291C55.241,43.133 55.726,45.207 57.34,45.375C56.929,46.125 56.486,46.855 56.015,47.566C55.059,47.054 54.23,45.509 52.417,45.414C52.603,44.84 52.766,44.258 52.904,43.666C51.296,43.666 49.457,43.039 47.915,41.635C48.415,38.789 43.998,35.891 43.998,33.807C43.998,31.543 45.143,30.29 45.143,27.238C45.143,24.973 44.043,22.516 42.384,20.837C42.063,20.511 41.734,20.247 41.356,20.01C42.88,21.896 44.05,24.132 44.05,26.722C44.05,29.596 42.713,31.113 42.713,33.766C42.713,36.418 46.593,38.713 46.593,41.448C46.593,42.524 46.249,43.575 45.115,45.639C46.857,47.379 49.126,48.328 50.59,48.328C51.065,48.328 51.32,48.183 51.49,47.81C51.636,47.488 51.775,47.162 51.906,46.833C53.483,46.894 54.205,48.327 55.078,48.899C54.599,49.542 54.096,50.163 53.569,50.764C52.984,50.116 52.198,49.026 51.047,48.723C50.841,49.123 50.623,49.518 50.394,49.905C51.385,50.175 52.063,51.175 52.588,51.833C52.022,52.419 51.433,52.981 50.82,53.521C50.437,52.925 49.841,52.169 49.173,51.761C48.926,52.095 48.669,52.421 48.404,52.738C48.972,53.123 49.473,53.816 49.8,54.381C49.092,54.949 48.36,55.488 47.602,55.992C47.228,52.945 43.069,50.857 44.19,47.322C43.822,47.945 43.383,48.724 43.383,49.662C43.383,52.221 46.109,54.252 46.326,56.795C45.761,57.133 45.183,57.451 44.594,57.752C44.496,54.957 41.61,51.898 41.61,49.604C41.61,47.043 44.964,44.471 44.964,41.448C44.964,38.423 41.094,36.329 41.094,33.673C41.094,31.019 42.74,29.492 42.74,26.09C42.74,23.598 41.556,21.076 39.727,19.465C39.403,19.179 39.084,18.952 38.701,18.753C40.426,20.822 41.426,22.699 41.426,25.547C41.426,28.746 39.54,30.522 39.54,33.654C39.54,36.787 43.338,38.529 43.338,41.449C43.338,44.369 39.803,46.83 39.803,49.83C39.803,52.559 42.919,55.283 42.965,58.521C42.284,58.818 41.59,59.089 40.884,59.335C41.28,56.064 37.773,52.69 37.773,50.021C37.773,47.103 41.44,44.595 41.44,41.449C41.44,38.301 37.712,36.838 37.712,33.607C37.712,30.378 39.999,28.59 39.999,25.022C39.999,22.241 38.626,19.74 36.62,18.19C36.577,18.157 36.535,18.126 36.493,18.094C36.304,17.954 36.148,18.123 36.282,18.289C37.702,20.062 38.461,21.855 38.461,24.51C38.461,27.774 35.834,30.426 35.834,33.588C35.834,37.32 39.362,38.387 39.362,41.449C39.362,44.51 35.579,46.959 35.579,50.209C35.579,53.223 39.159,56.568 38.545,60.047C37.827,60.233 37.099,60.395 36.36,60.527C37.032,56.195 33.52,53.084 33.52,50.25C33.52,47.182 37.438,44.447 37.438,41.449C37.438,38.621 34.626,37.697 34.256,34.804C34.205,34.409 33.888,34.116 33.451,34.189C32.88,34.293 32.148,34.669 30.998,34.669C29.848,34.669 29.116,34.292 28.544,34.189C28.108,34.117 27.791,34.41 27.74,34.804C27.371,37.697 24.557,38.62 24.557,41.449C24.557,44.447 28.476,47.181 28.476,50.25C28.476,53.084 24.964,56.195 25.635,60.527C24.897,60.394 24.168,60.232 23.45,60.047C22.836,56.568 26.417,53.223 26.417,50.209C26.417,46.959 22.633,44.51 22.633,41.449C22.633,38.387 26.162,37.32 26.162,33.588C26.162,30.426 23.534,27.775 23.534,24.51C23.534,21.856 24.293,20.063 25.714,18.289C25.847,18.123 25.692,17.954 25.502,18.094C25.46,18.125 25.418,18.157 25.376,18.19C23.372,19.736 22,22.237 22,25.018C22,28.586 24.287,30.374 24.287,33.603C24.287,36.833 20.559,38.296 20.559,41.445C20.559,44.591 24.226,47.099 24.226,50.017C24.226,52.687 20.719,56.06 21.116,59.331C20.409,59.085 19.715,58.813 19.034,58.517C19.081,55.279 22.195,52.554 22.195,49.826C22.195,46.826 18.662,44.365 18.662,41.445C18.662,38.525 22.458,36.783 22.458,33.65C22.458,30.518 20.573,28.742 20.573,25.543C20.573,22.695 21.572,20.818 23.297,18.749C22.913,18.948 22.595,19.175 22.272,19.461C20.443,21.072 19.26,23.594 19.26,26.086C19.26,29.488 20.906,31.015 20.906,33.669C20.906,36.325 17.036,38.419 17.036,41.444C17.036,44.467 20.39,47.04 20.39,49.6C20.39,51.895 17.502,54.954 17.405,57.748C16.816,57.447 16.238,57.129 15.673,56.791C15.891,54.248 18.616,52.217 18.616,49.658C18.616,48.72 18.178,47.941 17.809,47.318C18.93,50.853 14.771,52.941 14.397,55.988C13.639,55.484 12.906,54.945 12.199,54.377C12.525,53.813 13.026,53.119 13.595,52.734C13.329,52.418 13.073,52.091 12.826,51.757C12.157,52.165 11.56,52.921 11.178,53.517C10.567,52.978 9.977,52.415 9.411,51.829C9.936,51.171 10.614,50.171 11.605,49.901C11.376,49.514 11.158,49.12 10.952,48.719C9.801,49.022 9.014,50.112 8.43,50.76C7.903,50.158 7.399,49.537 6.921,48.895C7.794,48.323 8.516,46.889 10.092,46.829C10.224,47.157 10.363,47.483 10.509,47.806C10.679,48.179 10.935,48.324 11.409,48.324C12.873,48.324 15.141,47.375 16.884,45.635C15.75,43.571 15.406,42.52 15.406,41.444C15.406,38.71 19.286,36.415 19.286,33.762C19.286,31.109 17.949,29.592 17.949,26.718C17.949,24.128 19.119,21.892 20.643,20.006C20.265,20.243 19.936,20.507 19.615,20.833C17.956,22.513 16.856,24.969 16.856,27.234C16.856,30.286 18.002,31.539 18.002,33.803C18.002,35.887 13.584,38.785 14.084,41.631C12.542,43.035 10.703,43.662 9.094,43.662C9.234,44.254 9.397,44.836 9.581,45.41C7.769,45.506 6.94,47.051 5.983,47.562C5.511,46.851 5.069,46.121 4.658,45.371C6.271,45.203 6.757,43.129 9.011,43.287C8.893,42.74 8.793,42.185 8.715,41.625C6.121,41.451 5.533,43.639 3.828,43.732C3.466,42.959 3.134,42.17 2.837,41.363C5.21,41.472 6.019,39.17 8.51,39.199C8.503,38.967 8.498,38.732 8.498,38.498C8.498,38.074 8.511,37.654 8.534,37.238C5.613,37.17 4.724,39.677 2.2,39.429C1.968,38.632 1.765,37.824 1.598,37.003C4.788,37.398 5.945,34.716 8.815,34.718C8.945,33.95 9.114,33.198 9.321,32.46C5.842,32.309 4.628,35.335 1.233,34.772C1.144,34.069 1.081,33.358 1.043,32.641C4.99,33.082 6.47,29.837 10.064,30.234C10.403,29.375 10.797,28.544 11.241,27.744C6.735,26.952 5.205,30.72 1.011,30.141C1.464,13.97 14.717,0.998 31,0.998C47.283,0.998 60.536,13.97 60.989,30.145C56.794,30.724 55.264,26.957 50.759,27.748C51.202,28.548 51.596,29.379 51.936,30.238C55.528,29.84 57.008,33.086 60.956,32.645ZM18.104,20.062C15.895,19.159 13.221,19.367 10.937,20.834C10.583,18.709 9.43,16.821 7.788,15.682C7.561,15.525 7.325,15.674 7.346,15.937C7.693,20.427 5.068,24.326 1.84,27.753C5.167,28.753 7.999,24.469 12.314,25.964C13.862,23.659 15.828,21.656 18.104,20.062ZM31,17.346C28.215,17.346 25.882,18.921 25.271,20.956C25.224,21.112 25.288,21.213 25.468,21.132C25.969,20.907 26.539,20.799 27.158,20.799C28.294,20.799 29.295,21.216 29.887,21.942C30.149,22.806 30.171,24.057 29.875,24.771C29.407,24.666 29.239,24.304 28.782,24.304C28.325,24.304 27.971,24.625 27.196,24.625C26.422,24.625 26.331,24.259 25.822,24.259C25.223,24.259 25.113,24.876 25.113,25.572C25.113,28.675 27.965,32.945 30.999,32.945C34.032,32.945 36.884,28.675 36.884,25.572C36.884,24.876 36.741,24.28 36.115,24.199C35.803,24.424 35.516,24.625 34.802,24.625C34.027,24.625 33.813,24.304 33.357,24.304C32.806,24.304 32.861,25.466 32.207,25.531C31.771,24.483 31.75,23.139 32.112,21.942C32.705,21.216 33.705,20.799 34.841,20.799C35.46,20.799 36.034,20.908 36.53,21.132C36.711,21.213 36.774,21.111 36.727,20.956C36.117,18.921 33.785,17.346 31,17.346ZM35.434,21.798C34.766,21.798 33.983,22.003 33.491,22.551C33.44,22.7 33.44,22.922 33.512,23.07C34.723,22.655 35.791,22.639 36.307,23.216C36.582,22.966 36.67,22.741 36.67,22.48C36.67,22.077 36.26,21.798 35.434,21.798ZM25.693,23.216C26.277,22.631 27.508,22.656 28.787,23.128C28.843,22.492 27.704,21.797 26.566,21.797C25.739,21.797 25.33,22.076 25.33,22.48C25.33,22.741 25.418,22.967 25.693,23.216ZM44.887,12.712C42.688,12.869 40.778,13.624 39.233,14.882C39.889,13.022 40.722,11.395 41.778,9.818C38.978,10.115 36.637,11.139 34.929,12.889L33.592,9.384L36.56,6.763L32.586,6.482L31,2.786L29.413,6.482L25.439,6.763L28.407,9.384L27.071,12.889C25.362,11.139 23.021,10.115 20.223,9.818C21.277,11.396 22.11,13.023 22.766,14.882C21.222,13.623 19.312,12.868 17.113,12.712C18.432,14.408 19.601,16.216 20.467,18.16C20.565,18.379 20.775,18.451 21.002,18.338C24.014,16.841 27.408,15.999 30.999,15.999C34.59,15.999 37.983,16.842 40.997,18.338C41.224,18.451 41.434,18.379 41.531,18.16C42.398,16.216 43.567,14.408 44.887,12.712ZM49.688,25.966C54.001,24.471 56.834,28.754 60.161,27.755C56.933,24.328 54.309,20.429 54.656,15.939C54.677,15.676 54.44,15.526 54.214,15.684C52.571,16.823 51.418,18.711 51.065,20.836C48.78,19.369 46.107,19.16 43.898,20.064C46.171,21.656 48.138,23.659 49.688,25.966Z" style="fill:rgb(0,99,65);fill-rule:nonzero;"/>
            <path d="M53.595,57.01L52.069,57.01L52.069,61.115L51.522,61.115L51.522,57.01L50,57.01L50,56.5L53.595,56.5L53.595,57.01Z" style="fill:rgb(0,99,65);fill-rule:nonzero;"/>
            <path d="M54.236,56.5L55.047,56.5L56.617,60.118L56.628,60.118L58.202,56.5L59,56.5L59,61.115L58.449,61.115L58.449,57.246L58.437,57.246L56.784,61.115L56.451,61.115L54.792,57.246L54.781,57.246L54.781,61.115L54.236,61.115L54.236,56.5Z" style="fill:rgb(0,99,65);fill-rule:nonzero;"/>
        </g>
    </g>
</svg>
